X: 52
%
U:~=!turn!
T: Mrs. Mackinnon Corry
T: The Highlanders march from the battle of Waterloo
T: Bonny toun o' Kenmore
C:Sir Alex. Macdonald
O:Scotland
B:Keith Norman MacDonald : "The Skye collection of the best reels & strathspeys extant" : 1887
Z:Ralph Palmer
R:Strathspey
M:C
L:1/8
K:G
B | d>d(d<B) d>Bd>B | ee{ef}g>f {gf}e2 (e>f) | {/f}g>e{/^c}d<B {cB}A>GA<B | {/F}G<ETE>D {/F}G3 :|
d | {/f}g2 (g>b) TB>AB<G | (E<A)A>B A<af<a | (g/f/)(e/d/) B<g {/^c}d>BA>G | (FG/A/) (D>d) B<GG>d |
{/f}g2 (g<b) TB>AB<G | (E<A)A>B A<af>a | (g/f/)(e/d/) B>g {/^c}d<BA>G | (F/G/A) D>d BG<G |]


